X: 85
T: No_46_Dream_Song.krn
N: Derived from No_46_Dream_Song.krn
%%abc-version 2.0
%%abcx-abcm2ps-target-version 5.9.1 (29 Sep 2008)
%%abc-creator hum2abc beta
%%abcx-conversion-date 2019/03/15 08:35:44
%%humdrum-veritas 1953288294
%%humdrum-veritas-data 3941523369
%%linebreak <none>
%%barnumbers 0
L: 1/8
M: 2/4
K: B clef=bass
[K:clef=bass][M:2/4]z2z z/ C/ | 
C3/B,/C2 | 
C2z3/ C/ | 
B,3B, | 
B,2(B,3/G,/) ||  
[M:3/4]G,4z3/ C/ ||  
[M:2/4]C3/B,/C2 | 
B,4 | 
z B,G,2 ||  
[M:3/4]F,2z G,(G,2 | 
F,2)F,4- ||  
[M:2/4]F,2z B, | 
B,7/F,/ | 
F,2F, z ||  
[M:3/4]F,F, z3/ G,/F,2 ||  
[M:2/4](F,2D,) z/ F,/ | 
F,3/D,/F,2 ||  
[M:3/4]F,2z F,D,2 ||  
[M:2/4]B,, z/ C,/C,2 | 
B,,2B,,2- ||  
[M:3/4]B,,4z z/ C/ | 
(C3/B,/)B,2B, z | 
B,B, z3/ B,/B,2 ||  
[M:2/4](B,2G,) z/ B,/ | 
B,3/B,/(C2 | 
B,4) | 
z B,G,2 ||  
[M:3/4]F,2z G,(G,2 ||  
[M:2/4]F,2)F,2- | 
F,2z3/ B,/ | 
B,7/F,/ | 
F,2F, z ||  
[M:3/4]F,F, z3/ G,/F,2 ||  
[M:2/4](F,2D,) z/ F,/ | 
F,3/F,/G,2 | 
F,2z2 | 
z D,D,2 | 
B,, z/ C,/C,2 | 
B,,2B,,2- | 
B,,4 |]  



